X:358
T:Banbury Bill
M:4/4
L:1/8
K:G
G2 A2 B2 G2 | c2 d2 e4 | A2 B2 c2 dc | B2 c2 d4 |
d2 G2 B2 d2 | g2 a2 b4 | c'2 a2 e2 f2 | g4 g4 :|
g3 a b2 g2 | f2 g2 a4 | e2 f2 g2 ag | f2 e2 d4 |
g2 G2 G4 | Bc d2 d4 | ef g2 fg a2 | g4 g4 :|
